images/3246390.svg

<?xml version="1.0" encoding="UTF-8"?>
<svg xmlns="http://www.w3.org/2000/svg" xmlns:xlink="http://www.w3.org/1999/xlink" width="300pt" height="300pt" viewBox="0 0 300 300" version="1.1">
<defs>
<g>
<symbol overflow="visible" id="glyph0-0">
<path style="stroke:none;" d="M 0.640625 2.296875 L 0.640625 -9.171875 L 7.140625 -9.171875 L 7.140625 2.296875 Z M 1.375 1.578125 L 6.421875 1.578125 L 6.421875 -8.4375 L 1.375 -8.4375 Z M 1.375 1.578125 "/>
</symbol>
<symbol overflow="visible" id="glyph0-1">
<path style="stroke:none;" d="M 5.125 -8.609375 C 4.1875 -8.609375 3.441406 -8.257812 2.890625 -7.5625 C 2.347656 -6.875 2.078125 -5.929688 2.078125 -4.734375 C 2.078125 -3.535156 2.347656 -2.585938 2.890625 -1.890625 C 3.441406 -1.203125 4.1875 -0.859375 5.125 -0.859375 C 6.050781 -0.859375 6.785156 -1.203125 7.328125 -1.890625 C 7.878906 -2.585938 8.15625 -3.535156 8.15625 -4.734375 C 8.15625 -5.929688 7.878906 -6.875 7.328125 -7.5625 C 6.785156 -8.257812 6.050781 -8.609375 5.125 -8.609375 Z M 5.125 -9.65625 C 6.445312 -9.65625 7.503906 -9.207031 8.296875 -8.3125 C 9.097656 -7.414062 9.5 -6.222656 9.5 -4.734375 C 9.5 -3.234375 9.097656 -2.035156 8.296875 -1.140625 C 7.503906 -0.253906 6.445312 0.1875 5.125 0.1875 C 3.789062 0.1875 2.722656 -0.253906 1.921875 -1.140625 C 1.128906 -2.035156 0.734375 -3.234375 0.734375 -4.734375 C 0.734375 -6.222656 1.128906 -7.414062 1.921875 -8.3125 C 2.722656 -9.207031 3.789062 -9.65625 5.125 -9.65625 Z M 5.125 -9.65625 "/>
</symbol>
<symbol overflow="visible" id="glyph0-2">
<path style="stroke:none;" d="M 1.28125 -9.484375 L 3 -9.484375 L 7.203125 -1.546875 L 7.203125 -9.484375 L 8.453125 -9.484375 L 8.453125 0 L 6.71875 0 L 2.515625 -7.921875 L 2.515625 0 L 1.28125 0 Z M 1.28125 -9.484375 "/>
</symbol>
<symbol overflow="visible" id="glyph0-3">
<path style="stroke:none;" d="M 1.28125 -9.484375 L 2.5625 -9.484375 L 2.5625 -5.59375 L 7.21875 -5.59375 L 7.21875 -9.484375 L 8.5 -9.484375 L 8.5 0 L 7.21875 0 L 7.21875 -4.515625 L 2.5625 -4.515625 L 2.5625 0 L 1.28125 0 Z M 1.28125 -9.484375 "/>
</symbol>
<symbol overflow="visible" id="glyph0-4">
<path style="stroke:none;" d="M 6.953125 -9.171875 L 6.953125 -7.921875 C 6.472656 -8.148438 6.015625 -8.320312 5.578125 -8.4375 C 5.148438 -8.550781 4.734375 -8.609375 4.328125 -8.609375 C 3.628906 -8.609375 3.085938 -8.472656 2.703125 -8.203125 C 2.328125 -7.929688 2.140625 -7.546875 2.140625 -7.046875 C 2.140625 -6.628906 2.265625 -6.3125 2.515625 -6.09375 C 2.773438 -5.882812 3.253906 -5.710938 3.953125 -5.578125 L 4.734375 -5.421875 C 5.679688 -5.234375 6.382812 -4.910156 6.84375 -4.453125 C 7.300781 -3.992188 7.53125 -3.378906 7.53125 -2.609375 C 7.53125 -1.691406 7.222656 -0.992188 6.609375 -0.515625 C 5.992188 -0.046875 5.085938 0.1875 3.890625 0.1875 C 3.441406 0.1875 2.960938 0.132812 2.453125 0.03125 C 1.953125 -0.0703125 1.429688 -0.222656 0.890625 -0.421875 L 0.890625 -1.734375 C 1.410156 -1.441406 1.921875 -1.222656 2.421875 -1.078125 C 2.921875 -0.929688 3.410156 -0.859375 3.890625 -0.859375 C 4.628906 -0.859375 5.195312 -1 5.59375 -1.28125 C 5.988281 -1.570312 6.1875 -1.984375 6.1875 -2.515625 C 6.1875 -2.984375 6.039062 -3.347656 5.75 -3.609375 C 5.46875 -3.867188 5.003906 -4.066406 4.359375 -4.203125 L 3.578125 -4.359375 C 2.617188 -4.546875 1.925781 -4.84375 1.5 -5.25 C 1.070312 -5.65625 0.859375 -6.21875 0.859375 -6.9375 C 0.859375 -7.78125 1.148438 -8.441406 1.734375 -8.921875 C 2.328125 -9.410156 3.144531 -9.65625 4.1875 -9.65625 C 4.625 -9.65625 5.070312 -9.613281 5.53125 -9.53125 C 6 -9.445312 6.472656 -9.328125 6.953125 -9.171875 Z M 6.953125 -9.171875 "/>
</symbol>
</g>
</defs>
<g id="surface34341">
<rect x="0" y="0" width="300" height="300" style="fill:rgb(100%,100%,100%);fill-opacity:1;stroke:none;"/>
<path style="fill:none;stroke-width:1.2;stroke-linecap:butt;stroke-linejoin:miter;stroke:rgb(0%,0%,0%);stroke-opacity:1;stroke-miterlimit:10;" d="M 76.980469 238.332031 L 49.160156 218.257812 "/>
<path style="fill:none;stroke-width:1.2;stroke-linecap:butt;stroke-linejoin:miter;stroke:rgb(0%,0%,0%);stroke-opacity:1;stroke-miterlimit:10;" d="M 78.921875 229.78125 L 56.667969 213.71875 "/>
<path style="fill:none;stroke-width:1.2;stroke-linecap:butt;stroke-linejoin:miter;stroke:rgb(0%,0%,0%);stroke-opacity:1;stroke-miterlimit:10;" d="M 108.273438 224.28125 L 76.980469 238.332031 "/>
<path style="fill:none;stroke-width:1.2;stroke-linecap:butt;stroke-linejoin:miter;stroke:rgb(0%,0%,0%);stroke-opacity:1;stroke-miterlimit:10;" d="M 49.160156 218.257812 L 52.636719 184.128906 "/>
<path style="fill:none;stroke-width:1.2;stroke-linecap:butt;stroke-linejoin:miter;stroke:rgb(0%,0%,0%);stroke-opacity:1;stroke-miterlimit:10;" d="M 52.636719 184.128906 L 83.933594 170.074219 "/>
<path style="fill:none;stroke-width:1.2;stroke-linecap:butt;stroke-linejoin:miter;stroke:rgb(0%,0%,0%);stroke-opacity:1;stroke-miterlimit:10;" d="M 59.074219 190.085938 L 84.109375 178.84375 "/>
<path style="fill:none;stroke-width:1.2;stroke-linecap:butt;stroke-linejoin:miter;stroke:rgb(0%,0%,0%);stroke-opacity:1;stroke-miterlimit:10;" d="M 83.933594 170.074219 L 111.75 190.152344 "/>
<path style="fill:none;stroke-width:1.2;stroke-linecap:butt;stroke-linejoin:miter;stroke:rgb(0%,0%,0%);stroke-opacity:1;stroke-miterlimit:10;" d="M 83.933594 170.074219 L 87.410156 135.945312 "/>
<path style="fill:none;stroke-width:1.2;stroke-linecap:butt;stroke-linejoin:miter;stroke:rgb(0%,0%,0%);stroke-opacity:1;stroke-miterlimit:10;" d="M 111.75 190.152344 L 108.273438 224.28125 "/>
<path style="fill:none;stroke-width:1.2;stroke-linecap:butt;stroke-linejoin:miter;stroke:rgb(0%,0%,0%);stroke-opacity:1;stroke-miterlimit:10;" d="M 103.375 192.746094 L 100.59375 220.050781 "/>
<path style="fill:none;stroke-width:1.2;stroke-linecap:butt;stroke-linejoin:miter;stroke:rgb(0%,0%,0%);stroke-opacity:1;stroke-miterlimit:10;" d="M 87.410156 135.945312 L 118.703125 121.894531 "/>
<path style="fill:none;stroke-width:1.2;stroke-linecap:butt;stroke-linejoin:miter;stroke:rgb(0%,0%,0%);stroke-opacity:1;stroke-miterlimit:10;" d="M 87.234375 127.175781 L 112.269531 115.933594 "/>
<path style="fill:none;stroke-width:1.2;stroke-linecap:butt;stroke-linejoin:miter;stroke:rgb(0%,0%,100%);stroke-opacity:1;stroke-miterlimit:10;" d="M 59.589844 115.871094 L 73.5 125.910156 "/>
<path style="fill:none;stroke-width:1.2;stroke-linecap:butt;stroke-linejoin:miter;stroke:rgb(0%,0%,0%);stroke-opacity:1;stroke-miterlimit:10;" d="M 73.5 125.910156 L 87.410156 135.945312 "/>
<path style="fill:none;stroke-width:1.2;stroke-linecap:butt;stroke-linejoin:miter;stroke:rgb(0%,0%,0%);stroke-opacity:1;stroke-miterlimit:10;" d="M 118.703125 121.894531 L 122.183594 87.761719 "/>
<path style="fill:none;stroke-width:1.2;stroke-linecap:butt;stroke-linejoin:miter;stroke:rgb(0%,0%,0%);stroke-opacity:1;stroke-miterlimit:10;" d="M 118.703125 121.894531 L 146.523438 141.96875 "/>
<path style="fill:none;stroke-width:1.2;stroke-linecap:butt;stroke-linejoin:miter;stroke:rgb(0%,0%,0%);stroke-opacity:1;stroke-miterlimit:10;" d="M 124.273438 91.214844 L 133.898438 85.390625 "/>
<path style="fill:none;stroke-width:1.2;stroke-linecap:butt;stroke-linejoin:miter;stroke:rgb(100%,0%,0%);stroke-opacity:1;stroke-miterlimit:10;" d="M 133.898438 85.390625 L 143.527344 79.5625 "/>
<path style="fill:none;stroke-width:1.2;stroke-linecap:butt;stroke-linejoin:miter;stroke:rgb(0%,0%,0%);stroke-opacity:1;stroke-miterlimit:10;" d="M 120.09375 84.3125 L 129.71875 78.484375 "/>
<path style="fill:none;stroke-width:1.2;stroke-linecap:butt;stroke-linejoin:miter;stroke:rgb(100%,0%,0%);stroke-opacity:1;stroke-miterlimit:10;" d="M 129.71875 78.484375 L 139.347656 72.65625 "/>
<path style="fill:none;stroke-width:1.2;stroke-linecap:butt;stroke-linejoin:miter;stroke:rgb(0%,0%,0%);stroke-opacity:1;stroke-miterlimit:10;" d="M 122.183594 87.761719 L 108.273438 77.726562 "/>
<path style="fill:none;stroke-width:1.2;stroke-linecap:butt;stroke-linejoin:miter;stroke:rgb(0%,0%,100%);stroke-opacity:1;stroke-miterlimit:10;" d="M 108.273438 77.726562 L 94.363281 67.6875 "/>
<path style=" stroke:none;fill-rule:nonzero;fill:rgb(100%,100%,100%);fill-opacity:1;" d="M 136.4375 68.109375 L 147.4375 68.109375 L 147.4375 84.109375 L 136.4375 84.109375 Z M 136.4375 68.109375 "/>
<g style="fill:rgb(100%,0%,0%);fill-opacity:1;">
  <use xlink:href="#glyph0-1" x="136.4375" y="80.485352"/>
</g>
<path style="fill:none;stroke-width:1.2;stroke-linecap:butt;stroke-linejoin:miter;stroke:rgb(0%,0%,100%);stroke-opacity:1;stroke-miterlimit:10;" d="M 94.363281 67.6875 L 78.714844 74.714844 "/>
<path style="fill:none;stroke-width:1.2;stroke-linecap:butt;stroke-linejoin:miter;stroke:rgb(0%,0%,0%);stroke-opacity:1;stroke-miterlimit:10;" d="M 78.714844 74.714844 L 63.066406 81.742188 "/>
<path style=" stroke:none;fill-rule:nonzero;fill:rgb(100%,100%,100%);fill-opacity:1;" d="M 84.363281 59.6875 L 104.363281 59.6875 L 104.363281 75.6875 L 84.363281 75.6875 Z M 84.363281 59.6875 "/>
<g style="fill:rgb(0%,0%,100%);fill-opacity:1;">
  <use xlink:href="#glyph0-2" x="84.363281" y="72.063477"/>
  <use xlink:href="#glyph0-3" x="94.333008" y="72.063477"/>
</g>
<path style="fill:none;stroke-width:1.2;stroke-linecap:butt;stroke-linejoin:miter;stroke:rgb(0%,0%,0%);stroke-opacity:1;stroke-miterlimit:10;" d="M 65.429688 78.46875 L 51.519531 68.429688 "/>
<path style="fill:none;stroke-width:1.2;stroke-linecap:butt;stroke-linejoin:miter;stroke:rgb(80%,80%,0%);stroke-opacity:1;stroke-miterlimit:10;" d="M 51.519531 68.429688 L 37.613281 58.394531 "/>
<path style="fill:none;stroke-width:1.2;stroke-linecap:butt;stroke-linejoin:miter;stroke:rgb(0%,0%,0%);stroke-opacity:1;stroke-miterlimit:10;" d="M 60.707031 85.015625 L 46.796875 74.976562 "/>
<path style="fill:none;stroke-width:1.2;stroke-linecap:butt;stroke-linejoin:miter;stroke:rgb(80%,80%,0%);stroke-opacity:1;stroke-miterlimit:10;" d="M 46.796875 74.976562 L 32.886719 64.9375 "/>
<path style="fill:none;stroke-width:1.2;stroke-linecap:butt;stroke-linejoin:miter;stroke:rgb(0%,0%,0%);stroke-opacity:1;stroke-miterlimit:10;" d="M 63.066406 81.742188 L 61.328125 98.804688 "/>
<path style="fill:none;stroke-width:1.2;stroke-linecap:butt;stroke-linejoin:miter;stroke:rgb(0%,0%,100%);stroke-opacity:1;stroke-miterlimit:10;" d="M 61.328125 98.804688 L 59.589844 115.871094 "/>
<path style=" stroke:none;fill-rule:nonzero;fill:rgb(100%,100%,100%);fill-opacity:1;" d="M 26.25 53.667969 L 35.25 53.667969 L 35.25 69.667969 L 26.25 69.667969 Z M 26.25 53.667969 "/>
<g style="fill:rgb(80%,80%,0%);fill-opacity:1;">
  <use xlink:href="#glyph0-4" x="26.25" y="66.043945"/>
</g>
<path style=" stroke:none;fill-rule:nonzero;fill:rgb(100%,100%,100%);fill-opacity:1;" d="M 49.589844 107.871094 L 69.589844 107.871094 L 69.589844 123.871094 L 49.589844 123.871094 Z M 49.589844 107.871094 "/>
<g style="fill:rgb(0%,0%,100%);fill-opacity:1;">
  <use xlink:href="#glyph0-2" x="49.589844" y="120.24707"/>
  <use xlink:href="#glyph0-3" x="59.55957" y="120.24707"/>
</g>
<path style="fill:none;stroke-width:1.2;stroke-linecap:butt;stroke-linejoin:miter;stroke:rgb(0%,0%,0%);stroke-opacity:1;stroke-miterlimit:10;" d="M 146.523438 141.96875 L 177.816406 127.914062 "/>
<path style="fill:none;stroke-width:1.2;stroke-linecap:butt;stroke-linejoin:miter;stroke:rgb(0%,0%,0%);stroke-opacity:1;stroke-miterlimit:10;" d="M 177.816406 127.914062 L 181.296875 93.785156 "/>
<path style="fill:none;stroke-width:1.2;stroke-linecap:butt;stroke-linejoin:miter;stroke:rgb(0%,0%,0%);stroke-opacity:1;stroke-miterlimit:10;" d="M 186.195312 125.320312 L 188.976562 98.015625 "/>
<path style="fill:none;stroke-width:1.2;stroke-linecap:butt;stroke-linejoin:miter;stroke:rgb(0%,0%,0%);stroke-opacity:1;stroke-miterlimit:10;" d="M 205.636719 147.988281 L 177.816406 127.914062 "/>
<path style="fill:none;stroke-width:1.2;stroke-linecap:butt;stroke-linejoin:miter;stroke:rgb(0%,0%,0%);stroke-opacity:1;stroke-miterlimit:10;" d="M 181.296875 93.785156 L 212.589844 79.730469 "/>
<path style="fill:none;stroke-width:1.2;stroke-linecap:butt;stroke-linejoin:miter;stroke:rgb(0%,0%,0%);stroke-opacity:1;stroke-miterlimit:10;" d="M 181.296875 93.785156 L 173.039062 86.136719 "/>
<path style="fill:none;stroke-width:1.2;stroke-linecap:butt;stroke-linejoin:miter;stroke:rgb(100%,0%,0%);stroke-opacity:1;stroke-miterlimit:10;" d="M 173.039062 86.136719 L 164.785156 78.488281 "/>
<path style="fill:none;stroke-width:1.2;stroke-linecap:butt;stroke-linejoin:miter;stroke:rgb(0%,0%,0%);stroke-opacity:1;stroke-miterlimit:10;" d="M 212.589844 79.730469 L 240.410156 99.808594 "/>
<path style="fill:none;stroke-width:1.2;stroke-linecap:butt;stroke-linejoin:miter;stroke:rgb(0%,0%,0%);stroke-opacity:1;stroke-miterlimit:10;" d="M 210.648438 88.285156 L 232.902344 104.34375 "/>
<path style="fill:none;stroke-width:1.2;stroke-linecap:butt;stroke-linejoin:miter;stroke:rgb(0%,0%,0%);stroke-opacity:1;stroke-miterlimit:10;" d="M 240.410156 99.808594 L 236.933594 133.9375 "/>
<path style="fill:none;stroke-width:1.2;stroke-linecap:butt;stroke-linejoin:miter;stroke:rgb(0%,0%,0%);stroke-opacity:1;stroke-miterlimit:10;" d="M 236.933594 133.9375 L 264.75 154.011719 "/>
<path style="fill:none;stroke-width:1.2;stroke-linecap:butt;stroke-linejoin:miter;stroke:rgb(0%,0%,0%);stroke-opacity:1;stroke-miterlimit:10;" d="M 234.988281 142.488281 L 257.246094 158.550781 "/>
<path style="fill:none;stroke-width:1.2;stroke-linecap:butt;stroke-linejoin:miter;stroke:rgb(0%,0%,0%);stroke-opacity:1;stroke-miterlimit:10;" d="M 205.636719 147.988281 L 236.933594 133.9375 "/>
<path style="fill:none;stroke-width:1.2;stroke-linecap:butt;stroke-linejoin:miter;stroke:rgb(0%,0%,0%);stroke-opacity:1;stroke-miterlimit:10;" d="M 264.75 154.011719 L 261.273438 188.140625 "/>
<path style="fill:none;stroke-width:1.2;stroke-linecap:butt;stroke-linejoin:miter;stroke:rgb(0%,0%,0%);stroke-opacity:1;stroke-miterlimit:10;" d="M 261.273438 188.140625 L 229.976562 202.195312 "/>
<path style="fill:none;stroke-width:1.2;stroke-linecap:butt;stroke-linejoin:miter;stroke:rgb(0%,0%,0%);stroke-opacity:1;stroke-miterlimit:10;" d="M 254.835938 182.183594 L 229.800781 193.425781 "/>
<path style="fill:none;stroke-width:1.2;stroke-linecap:butt;stroke-linejoin:miter;stroke:rgb(0%,0%,0%);stroke-opacity:1;stroke-miterlimit:10;" d="M 229.976562 202.195312 L 202.160156 182.117188 "/>
<path style="fill:none;stroke-width:1.2;stroke-linecap:butt;stroke-linejoin:miter;stroke:rgb(0%,0%,0%);stroke-opacity:1;stroke-miterlimit:10;" d="M 202.160156 182.117188 L 205.636719 147.988281 "/>
<path style="fill:none;stroke-width:1.2;stroke-linecap:butt;stroke-linejoin:miter;stroke:rgb(0%,0%,0%);stroke-opacity:1;stroke-miterlimit:10;" d="M 210.539062 179.523438 L 213.320312 152.222656 "/>
<path style=" stroke:none;fill-rule:nonzero;fill:rgb(100%,100%,100%);fill-opacity:1;" d="M 143.785156 70.488281 L 164.785156 70.488281 L 164.785156 86.488281 L 143.785156 86.488281 Z M 143.785156 70.488281 "/>
<g style="fill:rgb(100%,0%,0%);fill-opacity:1;">
  <use xlink:href="#glyph0-3" x="143.785156" y="82.864258"/>
  <use xlink:href="#glyph0-1" x="153.807617" y="82.864258"/>
</g>
</g>
</svg>

<svg xmlns="http://www.w3.org/2000/svg" xmlns:xlink="http://www.w3.org/1999/xlink" width="300pt" height="300pt" viewBox="0 0 300 300"><defs><symbol overflow="visible"><path d="M.64 2.297v-11.47h6.5v11.47zm.735-.72h5.047V-8.436H1.375zm0 0"/></symbol><symbol overflow="visible" id="a"><path d="M5.125-8.61c-.938 0-1.684.352-2.234 1.047-.542.688-.812 1.633-.812 2.83 0 1.198.27 2.147.813 2.842.55.687 1.297 1.03 2.235 1.03.926 0 1.66-.343 2.203-1.03.55-.696.828-1.645.828-2.844 0-1.196-.277-2.14-.828-2.829-.543-.695-1.277-1.046-2.203-1.046zm0-1.046c1.32 0 2.38.45 3.172 1.344.8.898 1.203 2.09 1.203 3.578 0 1.5-.402 2.7-1.203 3.593C7.504-.255 6.445.186 5.125.186c-1.336 0-2.402-.44-3.203-1.328C1.13-2.036.734-3.235.734-4.735c0-1.49.395-2.68 1.188-3.579.8-.894 1.867-1.343 3.203-1.343zm0 0"/></symbol><symbol overflow="visible" id="b"><path d="M1.28-9.484H3l4.203 7.937v-7.937h1.25V0H6.72L2.515-7.922V0H1.28zm0 0"/></symbol><symbol overflow="visible" id="c"><path d="M1.28-9.484h1.282v3.89H7.22v-3.89H8.5V0H7.22v-4.516H2.562V0H1.28zm0 0"/></symbol><symbol overflow="visible" id="d"><path d="M6.953-9.172v1.25c-.48-.226-.937-.398-1.375-.516-.43-.113-.844-.17-1.25-.17-.7 0-1.242.135-1.625.405-.375.273-.562.656-.562 1.156 0 .418.126.734.376.953.257.21.738.383 1.437.516l.78.156c.947.188 1.65.512 2.11.97.458.46.688 1.073.688 1.843 0 .92-.307 1.618-.92 2.094-.618.47-1.524.704-2.72.704-.45 0-.93-.055-1.437-.157C1.953-.07 1.43-.222.89-.42v-1.312c.52.293 1.032.51 1.532.656.5.148.988.22 1.47.22.737 0 1.303-.142 1.702-.423.394-.29.593-.704.593-1.236 0-.468-.148-.832-.437-1.093-.28-.257-.746-.456-1.39-.593l-.782-.156c-.96-.187-1.652-.484-2.078-.89-.43-.406-.64-.97-.64-1.688 0-.843.288-1.503.874-1.984.594-.488 1.41-.734 2.454-.734.437 0 .882.043 1.343.125.47.085.943.202 1.423.358zm0 0"/></symbol></defs><g><path fill="#fff" d="M0 0h300v300H0z"/><path d="M76.98 238.332l-27.82-20.074M78.922 229.78l-22.254-16.06M108.273 224.28L76.98 238.333M49.16 218.258l3.477-34.13M52.637 184.13l31.297-14.056M59.074 190.086l25.035-11.242M83.934 170.074l27.816 20.078M83.934 170.074l3.476-34.13M111.75 190.152l-3.477 34.13M103.375 192.746l-2.78 27.305M87.41 135.945l31.293-14.05M87.234 127.176l25.036-11.242" stroke-width="1.2" stroke="#000" stroke-miterlimit="10" fill="none"/><path d="M59.59 115.87l13.91 10.04" stroke-width="1.2" stroke="#00f" stroke-miterlimit="10" fill="none"/><path d="M73.5 125.91l13.91 10.035M118.703 121.895l3.48-34.133M118.703 121.895l27.82 20.074M124.273 91.215l9.625-5.824" stroke-width="1.2" stroke="#000" stroke-miterlimit="10" fill="none"/><path d="M133.898 85.39l9.63-5.828" stroke-width="1.2" stroke="#f00" stroke-miterlimit="10" fill="none"/><path d="M120.094 84.313l9.625-5.83" stroke-width="1.2" stroke="#000" stroke-miterlimit="10" fill="none"/><path d="M129.72 78.484l9.628-5.828" stroke-width="1.2" stroke="#f00" stroke-miterlimit="10" fill="none"/><path d="M122.184 87.762l-13.91-10.035" stroke-width="1.2" stroke="#000" stroke-miterlimit="10" fill="none"/><path d="M108.273 77.727l-13.91-10.04" stroke-width="1.2" stroke="#00f" stroke-miterlimit="10" fill="none"/><path d="M136.438 68.11h11v16h-11zm0 0" fill="#fff"/><use xlink:href="#a" x="136.438" y="80.485" fill="#f00"/><path d="M94.363 67.688l-15.648 7.027" stroke-width="1.2" stroke="#00f" stroke-miterlimit="10" fill="none"/><path d="M78.715 74.715l-15.65 7.027" stroke-width="1.2" stroke="#000" stroke-miterlimit="10" fill="none"/><path d="M84.363 59.688h20v16h-20zm0 0" fill="#fff"/><g fill="#00f"><use xlink:href="#b" x="84.363" y="72.063"/><use xlink:href="#c" x="94.333" y="72.063"/></g><path d="M65.43 78.47L51.52 68.43" stroke-width="1.2" stroke="#000" stroke-miterlimit="10" fill="none"/><path d="M51.52 68.43L37.613 58.395" stroke-width="1.2" stroke="#cc0" stroke-miterlimit="10" fill="none"/><path d="M60.707 85.016l-13.91-10.04" stroke-width="1.2" stroke="#000" stroke-miterlimit="10" fill="none"/><path d="M46.797 74.977l-13.91-10.04" stroke-width="1.2" stroke="#cc0" stroke-miterlimit="10" fill="none"/><path d="M63.066 81.742l-1.738 17.063" stroke-width="1.2" stroke="#000" stroke-miterlimit="10" fill="none"/><path d="M61.328 98.805L59.59 115.87" stroke-width="1.2" stroke="#00f" stroke-miterlimit="10" fill="none"/><path d="M26.25 53.668h9v16h-9zm0 0" fill="#fff"/><use xlink:href="#d" x="26.25" y="66.044" fill="#cc0"/><path d="M49.59 107.87h20v16h-20zm0 0" fill="#fff"/><g fill="#00f"><use xlink:href="#b" x="49.59" y="120.247"/><use xlink:href="#c" x="59.56" y="120.247"/></g><path d="M146.523 141.97l31.293-14.056M177.816 127.914l3.48-34.13M186.195 125.32l2.782-27.304M205.637 147.988l-27.82-20.074M181.297 93.785L212.59 79.73M181.297 93.785l-8.258-7.648" stroke-width="1.2" stroke="#000" stroke-miterlimit="10" fill="none"/><path d="M173.04 86.137l-8.255-7.65" stroke-width="1.2" stroke="#f00" stroke-miterlimit="10" fill="none"/><path d="M212.59 79.73l27.82 20.08M210.648 88.285l22.254 16.06M240.41 99.81l-3.476 34.127M236.934 133.938l27.816 20.074M234.988 142.488l22.258 16.063M205.637 147.988l31.297-14.05M264.75 154.012l-3.477 34.13M261.273 188.14l-31.296 14.055M254.836 182.184L229.8 193.426M229.977 202.195l-27.817-20.078M202.16 182.117l3.477-34.13M210.54 179.523l2.78-27.3" stroke-width="1.2" stroke="#000" stroke-miterlimit="10" fill="none"/><path d="M143.785 70.488h21v16h-21zm0 0" fill="#fff"/><g fill="#f00"><use xlink:href="#c" x="143.785" y="82.864"/><use xlink:href="#a" x="153.808" y="82.864"/></g></g></svg>
